X:212
T:Polka de Maurs
O:France
M:2/4
L:1/8
Q:1/4=140
K:C
GA/2B/2 cc/2e/2|dc d2|1ge c>B|cd BG:|2gg g>f|ed c2|
|:c/2d/2e/2f/2 g>a|gf d2|1ge c>B|cd BG:|2gg g>f|ed c2||
